X: 68
T:Maggie Brown's
S:Mike Rafferty
R:set piece / single jig
C:Nathaniel Gow
H:see post from A. Kuntz
Z:Lesl
M:6/8
K:G
gge||dBG GAB|cBc E2B|AFD DEF|GAF G2e|
dBG GAB|cBc E2B|AFD DEF|GAF G2a||
|:bgb afd|efg gfe|dBe dBG|AFd d2a|
bgb afd|efg gfe|(3fga f ge^c|d3 def|
e^ce dBd|cAc BGB|A2e dBG|(3FGA F DEF|
G2G EFG|ABc def|gdB cAF|1 G~G2 G2a:|2 G~G2 G2e||
